X:29
T:Ich wollt, wenns Rosen schneit...
S:Aus Normhren.
B:Frau Nachtigall (Straburg - 1928)
Z:<anamnese@laposte.net> -- http://anamnese.fr.st
N:p.75
M:6/8
L:1/8
Q:1/4=130
K:E
E | B2 B AF B | G3-G z E | e2EE c>d e/c/ | B2 z e d c |
c B B c B A | A3/2 G/ G zz E/G/ | B>c B F>G A | G3-G z |]
W:Ich wollt, wenns Rosen schneit (3x)
W:da mir mein Herz erfreut (2x)
